docs/svg/streamline-vectors/core/line/artificial-intelligence/ai-chip-spark.svg

<svg xmlns="http://www.w3.org/2000/svg" fill="none" viewBox="0 0 14 14" id="Ai-Chip-Spark--Streamline-Core">
  <desc>
    Ai Chip Spark Streamline Icon: https://streamlinehq.com
  </desc>
  <g id="ai-chip-spark--chip-processor-artificial-intelligence-ai">
    <path id="Vector 893" stroke="#000000" stroke-linecap="round" stroke-linejoin="round" d="m2.5 8.83325 -1.821391 0" stroke-width="1"></path>
    <path id="Vector 896" stroke="#000000" stroke-linecap="round" stroke-linejoin="round" d="m13.3213 8.83325 -1.8214 0" stroke-width="1"></path>
    <path id="Vector 895" stroke="#000000" stroke-linecap="round" stroke-linejoin="round" d="m2.5 5.16675 -1.821391 0" stroke-width="1"></path>
    <path id="Vector 897" stroke="#000000" stroke-linecap="round" stroke-linejoin="round" d="m13.3213 5.16675 -1.8214 0" stroke-width="1"></path>
    <path id="Vector 898" stroke="#000000" stroke-linecap="round" stroke-linejoin="round" d="m5.16675 2.5 0 -1.821391" stroke-width="1"></path>
    <path id="Vector 899" stroke="#000000" stroke-linecap="round" stroke-linejoin="round" d="m5.16675 13.3213 0 -1.8214" stroke-width="1"></path>
    <path id="Vector 900" stroke="#000000" stroke-linecap="round" stroke-linejoin="round" d="m8.83325 2.5 0 -1.821391" stroke-width="1"></path>
    <path id="Vector 901" stroke="#000000" stroke-linecap="round" stroke-linejoin="round" d="m8.83325 13.3213 0 -1.8214" stroke-width="1"></path>
    <path id="Vector" stroke="#000000" stroke-linecap="round" stroke-linejoin="round" d="M10.5 2.5h-7c-0.55228 0 -1 0.44772 -1 1v7c0 0.5523 0.44772 1 1 1h7c0.5523 0 1 -0.4477 1 -1v-7c0 -0.55228 -0.4477 -1 -1 -1Z" stroke-width="1"></path>
    <path id="Vector 2136" stroke="#000000" stroke-linecap="round" stroke-linejoin="round" d="M4.66692 7.25076c-0.28131 -0.04894 -0.28132 -0.45278 0 -0.50172 1.01914 -0.1773 1.82972 -0.95356 2.05093 -1.96408l0.01696 -0.07746c0.06086 -0.27802 0.45673 -0.27975 0.52002 -0.00227l0.02059 0.09027c0.2294 1.00575 1.0402 1.77545 2.05651 1.95226 0.28275 0.04919 0.28275 0.45509 0 0.50428 -1.01631 0.17681 -1.82711 0.94651 -2.05651 1.95226l-0.02059 0.09027c-0.06329 0.27749 -0.45916 0.27576 -0.52002 -0.00227l-0.01696 -0.07746c-0.22121 -1.01052 -1.03179 -1.78678 -2.05093 -1.96408Z" stroke-width="1"></path>
  </g>
</svg>

<svg xmlns="http://www.w3.org/2000/svg" fill="none" viewBox="0 0 14 14"><g id="ai-chip-spark--chip-processor-artificial-intelligence-ai"><path id="Vector 893" stroke="#3e3e3e" stroke-linecap="round" stroke-linejoin="round" d="M2.5 8.833H.679"></path><path id="Vector 896" stroke="#3e3e3e" stroke-linecap="round" stroke-linejoin="round" d="M13.321 8.833H11.5"></path><path id="Vector 895" stroke="#3e3e3e" stroke-linecap="round" stroke-linejoin="round" d="M2.5 5.167H.679"></path><path id="Vector 897" stroke="#3e3e3e" stroke-linecap="round" stroke-linejoin="round" d="M13.321 5.167H11.5"></path><path id="Vector 898" stroke="#3e3e3e" stroke-linecap="round" stroke-linejoin="round" d="M5.167 2.5V.679"></path><path id="Vector 899" stroke="#3e3e3e" stroke-linecap="round" stroke-linejoin="round" d="M5.167 13.321V11.5"></path><path id="Vector 900" stroke="#3e3e3e" stroke-linecap="round" stroke-linejoin="round" d="M8.833 2.5V.679"></path><path id="Vector 901" stroke="#3e3e3e" stroke-linecap="round" stroke-linejoin="round" d="M8.833 13.321V11.5"></path><path id="Vector" stroke="#3e3e3e" stroke-linecap="round" stroke-linejoin="round" d="M10.5 2.5h-7a1 1 0 0 0-1 1v7a1 1 0 0 0 1 1h7a1 1 0 0 0 1-1v-7a1 1 0 0 0-1-1Z"></path><path id="Vector 2136" stroke="#3e3e3e" stroke-linecap="round" stroke-linejoin="round" d="M4.667 7.25c-.281-.048-.281-.452 0-.501a2.546 2.546 0 0 0 2.05-1.964l.018-.078c.06-.278.457-.28.52-.002l.02.09a2.56 2.56 0 0 0 2.057 1.953c.283.049.283.455 0 .504a2.56 2.56 0 0 0-2.057 1.952l-.02.09c-.063.278-.46.276-.52-.002l-.017-.077A2.546 2.546 0 0 0 4.667 7.25Z"></path></g></svg>
